; LightBurn 1.3.01
; Emblaser 2 / Core device profile, absolute coords
; Bounds: X2.5 Y2.75 to X383 Y294.25
G00 G17 G40 G21 G54
G90
M3
; Cut @ 100 mm/sec, 20% power
M08
G0 X7.25Y5
G0 Z10
; Layer C00
G1 X9.5Y7.25S.2F6000
G1 Y9.75
G1 X11
G1 X13Y11.75
G1 Y14.5
G1 X11
G1 Y12.5
G1 X9.5
G1 Y15
G1 X7.512
G0 X7.012
G1 X5.5
G1 Y12.5
G1 X2.5
G1 Y7.5
G1 X4
G1 Y10
G1 X5.5
G1 Y5
G1 X7.25
G0 X22.75Y5
G1 X25Y7.25
G1 Y9.75
G1 X26.5
G1 X28.5Y11.75
G1 Y14.5
G1 X26.5
G1 Y12.5
G1 X25
G1 Y15
G1 X23.188
G0 X22.688
G1 X21
G1 Y12.5
G1 X18
G1 Y7.5
G1 X19.5
G1 Y10
G1 X21
G1 Y5
G1 X22.75
G0 X38.25Y5
G1 X40.5Y7.25
G1 Y9.75
G1 X42
G1 X44Y11.75
G1 Y14.5
G1 X42
G1 Y12.5
G1 X40.5
G1 Y15
G1 X38.864
G0 X38.364
G1 X36.5
G1 Y12.5
G1 X33.5
G1 Y7.5
G1 X35
G1 Y10
G1 X36.5
G1 Y5
G1 X38.25
G0 X53.75Y5
G1 X56Y7.25
G1 Y9.75
G1 X57.5
G1 X59.5Y11.75
G1 Y14.5
G1 X57.5
G1 Y12.5
G1 X56
G1 Y15
G1 X54.324
G0 X53.824
G1 X52
G1 Y12.5
G1 X49
G1 Y7.5
G1 X50.5
G1 Y10
G1 X52
G1 Y5
G1 X53.75
G0 X69.25Y5
G1 X71.5Y7.25
G1 Y9.75
G1 X73
G1 X75Y11.75
G1 Y14.5
G1 X73
G1 Y12.5
G1 X71.5
G1 Y15
G1 X69.784
G0 X69.284
G1 X67.5
G1 Y12.5
G1 X64.5
G1 Y7.5
G1 X66
G1 Y10
G1 X67.5
G1 Y5
G1 X69.25
G0 X84.75Y5
G1 X87Y7.25
G1 Y9.75
G1 X88.5
G1 X90.5Y11.75
G1 Y14.5
G1 X88.5
G1 Y12.5
G1 X87
G1 Y15
G1 X85.531
G0 X85.031
G1 X83
G1 Y12.5
G1 X80
G1 Y7.5
G1 X81.5
G1 Y10
G1 X83
G1 Y5
G1 X84.75
G0 X100.25Y5
G1 X102.5Y7.25
G1 Y9.75
G1 X104
G1 X106Y11.75
G1 Y14.5
G1 X104
G1 Y12.5
G1 X102.5
G1 Y15
G1 X100.416
G0 X99.916
G1 X98.5
G1 Y12.5
G1 X95.5
G1 Y7.5
G1 X97
G1 Y10
G1 X98.5
G1 Y5
G1 X100.25
G0 X115.75Y5
G1 X118Y7.25
G1 Y9.75
G1 X119.5
G1 X121.5Y11.75
G1 Y14.5
G1 X119.5
G1 Y12.5
G1 X118
G1 Y15
G1 X116.307
G0 X115.807
G1 X114
G1 Y12.5
G1 X111
G1 Y7.5
G1 X112.5
G1 Y10
G1 X114
G1 Y5
G1 X115.75
G0 X126Y5.25
G1 Y4.25
G1 X123.156
G0 X122.656
G1 X120
G1 Y5.25
G1 X121
G1 Y7.75
G1 X126
G1 Y6.75
G1 X125
G1 Y5.25
G1 X126
G0 X139Y6.25
G1 Y4.75
G1 X135
G1 Y6.25
G1 X139
G0 X141Y7.75
G1 Y2.75
G1 X133
G1 Y7.75
G1 X131
G1 Y9.25
G1 X133
G1 Y14.075
G0 Y14.575
G1 Y19.25
G1 X130
G1 Y23.25
G1 X137
G1 X144
G1 Y19.25
G1 X141
G1 Y9.25
G1 X143
G1 Y7.75
G1 X141
G0 X145Y6.5
G1 X148.18Y15.173
G1 X151.36Y23.847
G1 X154.541Y32.52
G0 X154.713Y32.989
G1 X157.785Y41.367
G1 X160.856Y49.745
G1 X163.928Y58.122
G1 X167Y66.5
G1 X172
G1 Y65.5
G1 X175
G1 Y63.5
G1 X172
G1 Y54.5
G1 Y45.5
G1 Y36.5
G1 Y27.5
G1 Y18.5
G1 X175
G1 Y16.5
G1 X172
G1 Y6.5
G1 X167
G1 Y3.5
G1 X162
G1 Y5
G1 X164.5
G1 Y6.5
G1 X157.25
G1 X150
G1 Y3.5
G1 X145
G1 Y5
G1 X147.5
G1 Y6.5
G1 X145
G0 X188Y10
G1 Y11.5
G1 X198
G1 X208
G1 Y10
G1 X198
G1 X188
G0 X188Y21.5
G1 Y31.5
G1 Y41.5
G1 X189.5
G1 Y31.5
G1 Y21.5
G1 X188
G0 X230.5Y10
G1 Y11.5
G1 X240.5
G1 X250.5
G1 Y10
G1 X240.5
G1 X230.5
G0 X273Y10
G1 Y11.5
G1 X283
G1 X293
G1 Y10
G1 X283
G1 X273
G0 X315.5Y10
G1 Y11.5
G1 X325.5
G1 X335.5
G1 Y10
G1 X325.5
G1 X315.5
G0 X358Y10
G1 Y11.5
G1 X368
G1 X378
G1 Y10
G1 X368
G1 X358
G0 X294.5Y41.5
G1 Y31.5
G1 Y21.5
G1 X293
G1 Y31.5
G1 Y41.5
G1 X294.5
G0 X293Y85
G1 X294.5
G1 Y75
G1 Y65
G1 X293
G1 Y75
G1 Y85
G0 X294.5Y128.5
G1 Y118.5
G1 Y108.5
G1 X293
G1 Y118.5
G1 Y128.5
G1 X294.5
G0 X315.5Y138.5
G1 Y140
G1 X325.5
G1 X335.5
G1 Y138.5
G1 X325.5
G1 X315.5
G0 X273Y138.5
G1 Y140
G1 X283
G1 X293
G1 Y138.5
G1 X283
G1 X273
G0 X230.5Y138.5
G1 Y140
G1 X240.5
G1 X250.5
G1 Y138.5
G1 X240.5
G1 X230.5
G0 X229.5Y159.5
G1 X229.474Y160.011
G1 X229.398Y160.508
G1 X229.275Y160.987
G1 X229.107Y161.446
G1 X228.897Y161.883
G1 X228.646Y162.296
G1 X228.358Y162.68
G1 X228.036Y163.036
G1 X227.68Y163.358
G1 X227.296Y163.646
G1 X226.883Y163.897
G1 X226.446Y164.107
G1 X225.987Y164.275
G1 X225.508Y164.398
G1 X225.011Y164.474
G1 X224.5Y164.5
G1 X223.989Y164.474
G1 X223.492Y164.398
G1 X223.013Y164.275
G1 X222.554Y164.107
G1 X222.117Y163.897
G1 X221.704Y163.646
G1 X221.32Y163.358
G1 X220.964Y163.036
G1 X220.642Y162.68
G1 X220.354Y162.296
G1 X220.103Y161.883
G1 X219.893Y161.446
G1 X219.725Y160.987
G1 X219.602Y160.508
G1 X219.526Y160.011
G1 X219.5Y159.5
G0 X188Y140
G1 X198
G1 X208
G1 Y138.5
G1 X198
G1 X188
G1 Y140
G0 X188Y128.5
G1 X189.5
G1 Y118.5
G1 Y108.5
G1 X188
G1 Y118.5
G1 Y128.5
G0 X164Y86.5
G1 X161.334Y79.23
G1 X158.668Y71.959
G1 X156.003Y64.689
G1 X153.337Y57.419
G0 X153.165Y56.949
G1 X150.374Y49.337
G1 X147.582Y41.725
G1 X144.791Y34.112
G1 X142Y26.5
G1 X137
G1 Y27.5
G1 X134
G1 Y29.5
G1 X137
G1 Y38.5
G1 Y47.5
G1 Y56.5
G1 Y65.5
G1 Y74.5
G1 X134
G1 Y76.5
G1 X137
G1 Y86.5
G1 X142
G1 Y89.5
G1 X147
G1 Y88
G1 X144.5
G1 Y86.5
G1 X151.75
G1 X159
G1 Y89.5
G1 X164
G1 Y88
G1 X161.5
G1 Y86.5
G1 X164
G0 X188Y65
G1 Y75
G1 Y85
G1 X189.5
G1 Y75
G1 Y65
G1 X188
G0 X124Y65
G1 X123.97Y64.698
G1 X123.882Y64.416
G1 X123.744Y64.161
G1 X123.561Y63.939
G1 X123.339Y63.756
G1 X123.084Y63.618
G1 X122.802Y63.53
G1 X122.5Y63.5
G1 X122.198Y63.53
G1 X121.916Y63.618
G1 X121.661Y63.756
G1 X121.439Y63.939
G1 X121.256Y64.161
G1 X121.118Y64.416
G1 X121.03Y64.698
G1 X121Y65
G1 X121.03Y65.302
G1 X121.118Y65.584
G1 X121.256Y65.839
G1 X121.439Y66.061
G1 X121.661Y66.244
G1 X121.916Y66.382
G1 X122.198Y66.47
G1 X122.5Y66.5
G1 X122.802Y66.47
G1 X123.084Y66.382
G1 X123.339Y66.244
G1 X123.561Y66.061
G1 X123.744Y65.839
G1 X123.882Y65.584
G1 X123.97Y65.302
G1 X124Y65
G0 X119Y66.5
G1 X118.959Y66.097
G1 X118.843Y65.722
G1 X118.658Y65.382
G1 X118.414Y65.086
G1 X118.118Y64.842
G1 X117.778Y64.657
G1 X117.403Y64.541
G1 X117Y64.5
G1 X116.597Y64.541
G1 X116.222Y64.657
G1 X115.882Y64.842
G1 X115.586Y65.086
G1 X115.342Y65.382
G1 X115.157Y65.722
G1 X115.041Y66.097
G1 X115Y66.5
G1 X115.041Y66.903
G1 X115.157Y67.278
G1 X115.342Y67.618
G1 X115.586Y67.914
G1 X115.882Y68.158
G1 X116.222Y68.343
G1 X116.597Y68.459
G1 X117Y68.5
G1 X117.403Y68.459
G1 X117.778Y68.343
G1 X118.118Y68.158
G1 X118.414Y67.914
G1 X118.658Y67.618
G1 X118.843Y67.278
G1 X118.959Y66.903
G1 X119Y66.5
G0 X106Y65
G1 X105.97Y64.698
G1 X105.882Y64.416
G1 X105.744Y64.161
G1 X105.561Y63.939
G1 X105.339Y63.756
G1 X105.084Y63.618
G1 X104.802Y63.53
G1 X104.5Y63.5
G1 X104.198Y63.53
G1 X103.916Y63.618
G1 X103.661Y63.756
G1 X103.439Y63.939
G1 X103.256Y64.161
G1 X103.118Y64.416
G1 X103.03Y64.698
G1 X103Y65
G1 X103.03Y65.302
G1 X103.118Y65.584
G1 X103.256Y65.839
G1 X103.439Y66.061
G1 X103.661Y66.244
G1 X103.916Y66.382
G1 X104.198Y66.47
G1 X104.5Y66.5
G1 X104.802Y66.47
G1 X105.084Y66.382
G1 X105.339Y66.244
G1 X105.561Y66.061
G1 X105.744Y65.839
G1 X105.882Y65.584
G1 X105.97Y65.302
G1 X106Y65
G0 X96.25Y50
G1 X94.75
G1 Y58
G1 X96.25
G1 Y50
G0 X106Y43
G1 X105.97Y42.698
G1 X105.882Y42.416
G1 X105.744Y42.161
G1 X105.561Y41.939
G1 X105.339Y41.756
G1 X105.084Y41.618
G1 X104.802Y41.53
G1 X104.5Y41.5
G1 X104.198Y41.53
G1 X103.916Y41.618
G1 X103.661Y41.756
G1 X103.439Y41.939
G1 X103.256Y42.161
G1 X103.118Y42.416
G1 X103.03Y42.698
G1 X103Y43
G1 X103.03Y43.302
G1 X103.118Y43.584
G1 X103.256Y43.839
G1 X103.439Y44.061
G1 X103.661Y44.244
G1 X103.916Y44.382
G1 X104.198Y44.47
G1 X104.5Y44.5
G1 X104.802Y44.47
G1 X105.084Y44.382
G1 X105.339Y44.244
G1 X105.561Y44.061
G1 X105.744Y43.839
G1 X105.882Y43.584
G1 X105.97Y43.302
G1 X106Y43
G0 X119Y41.5
G1 X118.959Y41.097
G1 X118.843Y40.722
G1 X118.658Y40.382
G1 X118.414Y40.086
G1 X118.118Y39.842
G1 X117.778Y39.657
G1 X117.403Y39.541
G1 X117Y39.5
G1 X116.597Y39.541
G1 X116.222Y39.657
G1 X115.882Y39.842
G1 X115.586Y40.086
G1 X115.342Y40.382
G1 X115.157Y40.722
G1 X115.041Y41.097
G1 X115Y41.5
G1 X115.041Y41.903
G1 X115.157Y42.278
G1 X115.342Y42.618
G1 X115.586Y42.914
G1 X115.882Y43.158
G1 X116.222Y43.343
G1 X116.597Y43.459
G1 X117Y43.5
G1 X117.403Y43.459
G1 X117.778Y43.343
G1 X118.118Y43.158
G1 X118.414Y42.914
G1 X118.658Y42.618
G1 X118.843Y42.278
G1 X118.959Y41.903
G1 X119Y41.5
G0 X124Y43
G1 X123.97Y42.698
G1 X123.882Y42.416
G1 X123.744Y42.161
G1 X123.561Y41.939
G1 X123.339Y41.756
G1 X123.084Y41.618
G1 X122.802Y41.53
G1 X122.5Y41.5
G1 X122.198Y41.53
G1 X121.916Y41.618
G1 X121.661Y41.756
G1 X121.439Y41.939
G1 X121.256Y42.161
G1 X121.118Y42.416
G1 X121.03Y42.698
G1 X121Y43
G1 X121.03Y43.302
G1 X121.118Y43.584
G1 X121.256Y43.839
G1 X121.439Y44.061
G1 X121.661Y44.244
G1 X121.916Y44.382
G1 X122.198Y44.47
G1 X122.5Y44.5
G1 X122.802Y44.47
G1 X123.084Y44.382
G1 X123.339Y44.244
G1 X123.561Y44.061
G1 X123.744Y43.839
G1 X123.882Y43.584
G1 X123.97Y43.302
G1 X124Y43
G0 X5Y31.25
G1 X4.961Y31.055
G1 X4.854Y30.896
G1 X4.695Y30.789
G1 X4.5Y30.75
G1 X4.305Y30.789
G1 X4.146Y30.896
G1 X4.039Y31.055
G1 X4Y31.25
G1 X4.039Y31.445
G1 X4.146Y31.604
G1 X4.305Y31.711
G1 X4.5Y31.75
G1 X4.695Y31.711
G1 X4.854Y31.604
G1 X4.961Y31.445
G1 X5Y31.25
G0 X5Y26.75
G1 X4.961Y26.555
G1 X4.854Y26.396
G1 X4.695Y26.289
G1 X4.5Y26.25
G1 X4.305Y26.289
G1 X4.146Y26.396
G1 X4.039Y26.555
G1 X4Y26.75
G1 X4.039Y26.945
G1 X4.146Y27.104
G1 X4.305Y27.211
G1 X4.5Y27.25
G1 X4.695Y27.211
G1 X4.854Y27.104
G1 X4.961Y26.945
G1 X5Y26.75
G0 X5Y76.75
G1 X4.961Y76.555
G1 X4.854Y76.396
G1 X4.695Y76.289
G1 X4.5Y76.25
G1 X4.305Y76.289
G1 X4.146Y76.396
G1 X4.039Y76.555
G1 X4Y76.75
G1 X4.039Y76.945
G1 X4.146Y77.104
G1 X4.305Y77.211
G1 X4.5Y77.25
G1 X4.695Y77.211
G1 X4.854Y77.104
G1 X4.961Y76.945
G1 X5Y76.75
G0 X5Y81.25
G1 X4.961Y81.055
G1 X4.854Y80.896
G1 X4.695Y80.789
G1 X4.5Y80.75
G1 X4.305Y80.789
G1 X4.146Y80.896
G1 X4.039Y81.055
G1 X4Y81.25
G1 X4.039Y81.445
G1 X4.146Y81.604
G1 X4.305Y81.711
G1 X4.5Y81.75
G1 X4.695Y81.711
G1 X4.854Y81.604
G1 X4.961Y81.445
G1 X5Y81.25
G0 X2.5Y19
G1 X12.115
G1 X21.731
G1 X31.346
G1 X40.962
G1 X50.577
G1 X60.192
G1 X69.808
G1 X79.423
G1 X89.038
G1 X98.654
G1 X108.269
G1 X117.885
G1 X127.5
G1 Y27.632
G1 Y36.263
G1 Y44.895
G1 Y53.527
G0 Y54.027
G1 Y62.77
G1 Y71.513
G1 Y80.257
G1 Y89
G1 X117.885
G1 X108.269
G1 X98.654
G1 X89.038
G1 X79.423
G1 X69.808
G1 X60.192
G1 X50.577
G1 X40.962
G1 X31.346
G1 X21.731
G1 X12.115
G1 X2.5
G1 Y80.313
G1 Y71.626
G1 Y62.938
G1 Y54.251
G0 Y53.751
G1 Y45.063
G1 Y36.376
G1 Y27.688
G1 Y19
G0 X41.615Y155.396
G1 X41.312Y155.426
G1 X41.031Y155.514
G1 X40.776Y155.652
G1 X40.554Y155.835
G1 X40.371Y156.057
G1 X40.233Y156.312
G1 X40.145Y156.593
G1 X40.115Y156.896
G1 X40.145Y157.198
G1 X40.233Y157.48
G1 X40.371Y157.734
G1 X40.554Y157.956
G1 X40.776Y158.14
G1 X41.031Y158.278
G1 X41.312Y158.365
G1 X41.615Y158.396
G1 X41.917Y158.365
G1 X42.199Y158.278
G1 X42.453Y158.14
G1 X42.675Y157.956
G1 X42.859Y157.734
G1 X42.997Y157.48
G1 X43.084Y157.198
G1 X43.115Y156.896
G1 X43.084Y156.593
G1 X42.997Y156.312
G1 X42.859Y156.057
G1 X42.675Y155.835
G1 X42.453Y155.652
G1 X42.199Y155.514
G1 X41.917Y155.426
G1 X41.615Y155.396
G0 X15.812Y182.469
G1 X15.51Y182.5
G1 X15.228Y182.587
G1 X14.974Y182.726
G1 X14.752Y182.909
G1 X14.568Y183.131
G1 X14.43Y183.386
G1 X14.343Y183.667
G1 X14.312Y183.969
G1 X14.343Y184.272
G1 X14.43Y184.553
G1 X14.568Y184.808
G1 X14.752Y185.03
G1 X14.974Y185.213
G1 X15.228Y185.352
G1 X15.51Y185.439
G1 X15.812Y185.469
G1 X16.114Y185.439
G1 X16.396Y185.352
G1 X16.651Y185.213
G1 X16.873Y185.03
G1 X17.056Y184.808
G1 X17.194Y184.553
G1 X17.282Y184.272
G1 X17.312Y183.969
G1 X17.282Y183.667
G1 X17.194Y183.386
G1 X17.056Y183.131
G1 X16.873Y182.909
G1 X16.651Y182.726
G1 X16.396Y182.587
G1 X16.114Y182.5
G1 X15.812Y182.469
G0 X129.25Y242.25
G1 X128.847Y242.291
G1 X128.472Y242.407
G1 X128.132Y242.592
G1 X127.836Y242.836
G1 X127.592Y243.132
G1 X127.407Y243.472
G1 X127.291Y243.847
G1 X127.25Y244.25
G1 X127.291Y244.653
G1 X127.407Y245.028
G1 X127.592Y245.368
G1 X127.836Y245.664
G1 X128.132Y245.908
G1 X128.472Y246.093
G1 X128.847Y246.209
G1 X129.25Y246.25
G1 X129.653Y246.209
G1 X130.028Y246.093
G1 X130.368Y245.908
G1 X130.664Y245.664
G1 X130.908Y245.368
G1 X131.093Y245.028
G1 X131.209Y244.653
G1 X131.25Y244.25
G1 X131.209Y243.847
G1 X131.093Y243.472
G1 X130.908Y243.132
G1 X130.664Y242.836
G1 X130.368Y242.592
G1 X130.028Y242.407
G1 X129.653Y242.291
G1 X129.25Y242.25
G0 X110.75Y278.45
G1 X110.347Y278.491
G1 X109.971Y278.607
G1 X109.632Y278.792
G1 X109.336Y279.036
G1 X109.092Y279.332
G1 X108.907Y279.672
G1 X108.791Y280.047
G1 X108.75Y280.45
G1 X108.791Y280.853
G1 X108.907Y281.229
G1 X109.092Y281.568
G1 X109.336Y281.864
G1 X109.632Y282.108
G1 X109.971Y282.293
G1 X110.347Y282.409
G1 X110.75Y282.45
G1 X111.153Y282.409
G1 X111.528Y282.293
G1 X111.868Y282.108
G1 X112.164Y281.864
G1 X112.408Y281.568
G1 X112.593Y281.229
G1 X112.709Y280.853
G1 X112.75Y280.45
G1 X112.709Y280.047
G1 X112.593Y279.672
G1 X112.408Y279.332
G1 X112.164Y279.036
G1 X111.868Y278.792
G1 X111.528Y278.607
G1 X111.153Y278.491
G1 X110.75Y278.45
G0 X132Y291.25
G1 Y285.75
G1 Y280.25
G1 X126.5
G1 Y285.75
G1 Y291.25
G1 X132
G0 X147.75Y278.45
G1 X147.347Y278.491
G1 X146.972Y278.607
G1 X146.632Y278.792
G1 X146.336Y279.036
G1 X146.092Y279.332
G1 X145.907Y279.672
G1 X145.791Y280.047
G1 X145.75Y280.45
G1 X145.791Y280.853
G1 X145.907Y281.229
G1 X146.092Y281.568
G1 X146.336Y281.864
G1 X146.632Y282.108
G1 X146.972Y282.293
G1 X147.347Y282.409
G1 X147.75Y282.45
G1 X148.153Y282.409
G1 X148.528Y282.293
G1 X148.868Y282.108
G1 X149.164Y281.864
G1 X149.408Y281.568
G1 X149.593Y281.229
G1 X149.709Y280.853
G1 X149.75Y280.45
G1 X149.709Y280.047
G1 X149.593Y279.672
G1 X149.408Y279.332
G1 X149.164Y279.036
G1 X148.868Y278.792
G1 X148.528Y278.607
G1 X148.153Y278.491
G1 X147.75Y278.45
G0 X214.5Y245.75
G1 Y244.25
G1 X219.5
G1 Y245.75
G1 X214.5
G0 X234.5Y244.25
G1 Y245.75
G1 X239.5
G1 Y244.25
G1 X234.5
G0 X234.5Y200.25
G1 Y201.75
G1 X239.5
G1 Y200.25
G1 X234.5
G0 X214.5Y200.25
G1 Y201.75
G1 X219.5
G1 Y200.25
G1 X214.5
G0 X229.5Y159.5
G1 X229.474Y160.011
G1 X229.398Y160.508
G1 X229.275Y160.987
G1 X229.107Y161.446
G1 X228.897Y161.883
G1 X228.646Y162.296
G1 X228.358Y162.68
G1 X228.036Y163.036
G1 X227.68Y163.358
G1 X227.296Y163.646
G1 X226.883Y163.897
G1 X226.446Y164.107
G1 X225.987Y164.275
G1 X225.508Y164.398
G1 X225.011Y164.474
G1 X224.5Y164.5
G1 X223.989Y164.474
G1 X223.492Y164.398
G1 X223.013Y164.275
G1 X222.554Y164.107
G1 X222.117Y163.897
G1 X221.704Y163.646
G1 X221.32Y163.358
G1 X220.964Y163.036
G1 X220.642Y162.68
G1 X220.354Y162.296
G1 X220.103Y161.883
G1 X219.893Y161.446
G1 X219.725Y160.987
G1 X219.602Y160.508
G1 X219.526Y160.011
G1 X219.5Y159.5
G1 X210
G1 X200.5
G1 X191
G1 Y169.5
G1 X189
G1 Y179.5
G1 Y189.5
G1 X191
G1 Y197.333
G1 Y205.167
G1 Y213
G1 X189
G1 Y223
G1 Y233
G1 X191
G1 Y240.833
G1 Y248.667
G1 Y256.5
G1 X189
G1 Y266.5
G1 Y276.5
G1 X191
G1 Y286.5
G1 X200.5
G1 X210
G1 X219.5
G1 X219.526Y285.989
G1 X219.602Y285.492
G1 X219.725Y285.013
G1 X219.893Y284.554
G1 X220.103Y284.117
G1 X220.354Y283.704
G1 X220.642Y283.32
G1 X220.964Y282.964
G1 X221.32Y282.642
G1 X221.704Y282.354
G1 X222.117Y282.103
G1 X222.554Y281.893
G1 X223.013Y281.725
G1 X223.492Y281.602
G1 X223.989Y281.526
G1 X224.5Y281.5
G1 X225.011Y281.526
G1 X225.508Y281.602
G1 X225.987Y281.725
G1 X226.446Y281.893
G1 X226.883Y282.103
G1 X227.296Y282.354
G1 X227.68Y282.642
G1 X228.036Y282.964
G1 X228.358Y283.32
G1 X228.646Y283.704
G1 X228.897Y284.117
G1 X229.107Y284.554
G1 X229.275Y285.013
G1 X229.398Y285.492
G1 X229.474Y285.989
G1 X229.5Y286.5
G1 X239.397
G0 X239.897
G1 X248.948
G1 X258
G1 Y288
G1 X255
G1 Y289
G1 X263
G1 Y279.571
G1 Y270.143
G1 Y260.714
G1 Y251.286
G1 Y241.857
G1 Y232.429
G1 Y223
G1 Y213.571
G1 Y204.143
G1 Y194.714
G1 Y185.286
G1 Y175.857
G1 Y166.429
G1 Y157
G1 X255
G1 Y158
G1 X258
G1 Y159.5
G1 X250.661
G1 X243.323
G1 X235.984
G0 X235.484
G1 X229.5
G0 X314.7Y167.983
G1 Y164.017
G1 X314.986Y163.604
G1 X315.319Y163.237
G1 X315.694Y162.917
G1 X316.104Y162.649
G1 X316.546Y162.435
G1 X317.012Y162.279
G1 X317.499Y162.183
G1 X318Y162.15
G1 X318.501Y162.183
G1 X318.988Y162.279
G1 X319.454Y162.435
G1 X319.896Y162.649
G1 X320.306Y162.917
G1 X320.681Y163.237
G1 X321.014Y163.604
G1 X321.3Y164.017
G1 Y167.983
G1 X321.014Y168.396
G1 X320.681Y168.763
G1 X320.306Y169.083
G1 X319.896Y169.351
G1 X319.454Y169.565
G1 X318.988Y169.721
G1 X318.501Y169.817
G1 X318Y169.85
G1 X317.499Y169.817
G1 X317.012Y169.721
G1 X316.546Y169.565
G1 X316.104Y169.351
G1 X315.694Y169.083
G1 X315.319Y168.763
G1 X314.986Y168.396
G1 X314.7Y167.983
G0 X309.5Y188.75
G1 Y190.25
G1 X314.5
G1 Y188.75
G1 X309.5
G0 X325.5Y219.75
G1 Y221.25
G1 X330.5
G1 Y219.75
G1 X325.5
G0 X321Y245.1
G1 Y243.6
G1 X316
G1 Y245.1
G1 X321
G0 X338Y245.1
G1 Y243.6
G1 X333
G1 Y245.1
G1 X338
G0 X338Y256.5
G1 Y255
G1 X333
G1 Y256.5
G1 X338
G0 X321Y256.5
G1 Y255
G1 X316
G1 Y256.5
G1 X321
G0 X353Y286.5
G1 X343.429
G1 X333.857
G1 X324.286
G1 X314.714
G1 X305.143
G1 X295.571
G1 X286
G0 X286Y276.5
G1 X284
G1 Y266.5
G1 Y256.5
G1 X286
G1 Y248.667
G1 Y240.833
G1 Y233
G1 X284
G1 Y223
G1 Y213
G1 X286
G1 Y205.167
G1 Y197.333
G1 Y189.5
G1 X284
G1 Y179.5
G1 Y169.5
G1 X286
G1 Y159.5
G1 X294.821
G1 X303.641
G1 X312.462
G1 X321.282
G1 X330.103
G0 X330.603
G1 X338.069
G1 X345.534
G1 X353
G1 Y158
G1 X350
G1 Y157
G1 X358
G1 Y166.429
G1 Y175.857
G1 Y185.286
G1 Y194.714
G1 Y204.143
G1 Y213.571
G1 Y223
G1 Y232.429
G1 Y241.857
G1 Y251.286
G1 Y260.714
G1 Y270.143
G1 Y279.571
G1 Y289
G1 X350
G1 Y288
G1 X353
G1 Y286.5
G1 X345.413
G1 X337.825
G1 X330.238
G0 X329.738
G1 X320.99
G1 X312.243
G1 X303.495
G1 X294.748
G1 X286
G1 Y276.5
G0 X358Y138.5
G1 Y140
G1 X368
G1 X378
G1 Y138.5
G1 X368
G1 X358
G0 X165.25Y93.75
G1 Y98.75
G1 X168.25
G1 Y103.75
G1 X168.506Y103.763
G1 X168.754Y103.801
G1 X168.993Y103.862
G1 X169.223Y103.946
G1 X169.648Y104.177
G1 X170.018Y104.482
G1 X170.323Y104.852
G1 X170.554Y105.277
G1 X170.638Y105.507
G1 X170.699Y105.746
G1 X170.737Y105.994
G1 X170.75Y106.25
G1 X170.737Y106.506
G1 X170.699Y106.754
G1 X170.638Y106.993
G1 X170.554Y107.223
G1 X170.323Y107.648
G1 X170.018Y108.018
G1 X169.648Y108.323
G1 X169.223Y108.554
G1 X168.993Y108.638
G1 X168.754Y108.699
G1 X168.506Y108.737
G1 X168.25Y108.75
G1 Y118.75
G1 X166.75
G1 Y117.75
G1 X165.25
G1 Y125.583
G1 Y133.417
G1 Y141.25
G1 X168.25
G1 Y151.25
G1 Y161.25
G1 X166.75
G1 Y160.25
G1 X165.25
G1 Y168.083
G1 Y175.917
G1 Y183.75
G1 X168.25
G1 Y193.75
G1 Y203.75
G1 X166.75
G1 Y202.75
G1 X165.25
G1 Y210.583
G1 Y218.417
G1 Y226.25
G1 X168.25
G1 Y236.25
G1 Y246.25
G1 X166.75
G1 Y245.25
G1 X165.25
G1 Y253.083
G1 Y260.917
G1 Y268.75
G1 X168.25
G1 Y278.75
G1 X168.506Y278.763
G1 X168.754Y278.801
G1 X168.993Y278.862
G1 X169.223Y278.946
G1 X169.648Y279.177
G1 X170.018Y279.482
G1 X170.323Y279.852
G1 X170.554Y280.277
G1 X170.638Y280.507
G1 X170.699Y280.746
G1 X170.737Y280.994
G1 X170.75Y281.25
G1 X170.737Y281.506
G1 X170.699Y281.754
G1 X170.638Y281.993
G1 X170.554Y282.223
G1 X170.323Y282.648
G1 X170.018Y283.018
G1 X169.648Y283.323
G1 X169.223Y283.554
G1 X168.993Y283.638
G1 X168.754Y283.699
G1 X168.506Y283.737
G1 X168.25Y283.75
G1 Y288.75
G1 X166.75
G1 Y287.75
G1 X165.25
G1 Y291.75
G1 X157.75
G1 X150.25
G1 X142.75
G1 X135.25
G1 Y294.25
G1 X129.872
G0 X129.372
G1 X123.25
G1 Y291.75
G1 X113.25
G1 X103.25
G1 X93.25
G1 Y282.028
G1 Y272.306
G1 Y262.583
G1 Y252.861
G1 Y243.139
G1 Y233.417
G1 Y223.694
G1 Y213.972
G1 Y204.25
G1 X98.25
G1 Y202.75
G1 X93.25
G1 Y193.341
G1 Y183.932
G1 Y174.523
G1 Y165.114
G1 Y155.705
G1 Y146.295
G1 Y136.886
G1 Y127.477
G1 Y118.068
G1 Y108.659
G1 Y99.25
G1 X98.25
G1 Y97.75
G1 X93.25
G1 Y93.75
G1 X103.011
G1 X112.772
G1 X122.533
G1 X132.294
G0 X132.794
G1 X140.908
G1 X149.022
G1 X157.136
G1 X165.25
G0 X183Y5
G1 X193
G1 X203
G1 X213
G1 X223
G1 X233
G1 X243
G1 X253
G1 X263
G1 X273
G1 X283
G1 X293
G1 X303
G1 X313
G1 X323
G1 X333
G1 X343
G1 X353
G1 X363
G1 X373
G1 X383
G1 Y14.002
G1 Y23.004
G1 Y32.006
G1 Y41.008
G1 Y50.01
G1 Y59.012
G1 Y68.014
G1 Y77.016
G0 Y77.516
G1 Y87.157
G1 Y96.797
G1 Y106.438
G1 Y116.078
G1 Y125.719
G1 Y135.359
G1 Y145
G1 X373
G1 X363
G1 X353
G1 X343
G1 X333
G1 X323
G1 X313
G1 X303
G1 X293
G1 X283
G1 X273
G1 X263
G1 X253
G1 X243
G1 X233
G1 X223
G1 X213
G1 X203
G1 X193
G1 X183
G1 Y136.513
G1 Y128.026
G1 Y119.539
G1 Y111.052
G1 Y102.565
G1 Y94.078
G0 Y93.578
G1 Y83.736
G1 Y73.894
G1 Y64.052
G1 Y54.21
G1 Y44.368
G1 Y34.526
G1 Y24.684
G1 Y14.842
G1 Y5
G0 X66.25Y288.5
G1 X66.055Y288.539
G1 X65.896Y288.646
G1 X65.789Y288.805
G1 X65.75Y289
G1 X65.789Y289.195
G1 X65.896Y289.354
G1 X66.055Y289.461
G1 X66.25Y289.5
G1 X66.445Y289.461
G1 X66.604Y289.354
G1 X66.711Y289.195
G1 X66.75Y289
G1 X66.711Y288.805
G1 X66.604Y288.646
G1 X66.445Y288.539
G1 X66.25Y288.5
G0 X61.75Y288.5
G1 X61.555Y288.539
G1 X61.396Y288.646
G1 X61.289Y288.805
G1 X61.25Y289
G1 X61.289Y289.195
G1 X61.396Y289.354
G1 X61.555Y289.461
G1 X61.75Y289.5
G1 X61.945Y289.461
G1 X62.104Y289.354
G1 X62.211Y289.195
G1 X62.25Y289
G1 X62.211Y288.805
G1 X62.104Y288.646
G1 X61.945Y288.539
G1 X61.75Y288.5
G0 X16.25Y288.5
G1 X16.055Y288.539
G1 X15.896Y288.646
G1 X15.789Y288.805
G1 X15.75Y289
G1 X15.789Y289.195
G1 X15.896Y289.354
G1 X16.055Y289.461
G1 X16.25Y289.5
G1 X16.445Y289.461
G1 X16.604Y289.354
G1 X16.711Y289.195
G1 X16.75Y289
G1 X16.711Y288.805
G1 X16.604Y288.646
G1 X16.445Y288.539
G1 X16.25Y288.5
G0 X11.75Y288.5
G1 X11.555Y288.539
G1 X11.396Y288.646
G1 X11.289Y288.805
G1 X11.25Y289
G1 X11.289Y289.195
G1 X11.396Y289.354
G1 X11.555Y289.461
G1 X11.75Y289.5
G1 X11.945Y289.461
G1 X12.104Y289.354
G1 X12.211Y289.195
G1 X12.25Y289
G1 X12.211Y288.805
G1 X12.104Y288.646
G1 X11.945Y288.539
G1 X11.75Y288.5
G0 X75Y93
G1 Y98
G1 X78
G1 Y103
G1 X78.256Y103.013
G1 X78.504Y103.051
G1 X78.743Y103.112
G1 X78.973Y103.196
G1 X79.398Y103.427
G1 X79.768Y103.732
G1 X80.073Y104.102
G1 X80.304Y104.527
G1 X80.388Y104.757
G1 X80.449Y104.996
G1 X80.487Y105.244
G1 X80.5Y105.5
G1 X80.487Y105.756
G1 X80.449Y106.004
G1 X80.388Y106.243
G1 X80.304Y106.473
G1 X80.073Y106.898
G1 X79.768Y107.268
G1 X79.398Y107.573
G1 X78.973Y107.804
G1 X78.743Y107.888
G1 X78.504Y107.949
G1 X78.256Y107.987
G1 X78Y108
G1 Y118
G1 X76.5
G1 Y117
G1 X75
G1 Y124.833
G1 Y132.667
G1 Y140.5
G1 X78
G1 Y150.5
G1 Y160.5
G1 X76.5
G1 Y159.5
G1 X75
G1 Y167.333
G1 Y175.167
G1 Y183
G1 X78
G1 Y193
G1 Y203
G1 X76.5
G1 Y202
G1 X75
G1 Y209.833
G1 Y217.667
G1 Y225.5
G1 X78
G1 Y235.5
G1 Y245.5
G1 X76.5
G1 Y244.5
G1 X75
G1 Y252.333
G1 Y260.167
G1 Y268
G1 X78
G1 Y278
G1 X78.256Y278.013
G1 X78.504Y278.051
G1 X78.743Y278.112
G1 X78.973Y278.196
G1 X79.398Y278.427
G1 X79.768Y278.732
G1 X80.073Y279.102
G1 X80.304Y279.527
G1 X80.388Y279.757
G1 X80.449Y279.996
G1 X80.487Y280.244
G1 X80.5Y280.5
G1 X80.487Y280.756
G1 X80.449Y281.004
G1 X80.388Y281.243
G1 X80.304Y281.473
G1 X80.073Y281.898
G1 X79.768Y282.268
G1 X79.398Y282.573
G1 X78.973Y282.804
G1 X78.743Y282.888
G1 X78.504Y282.949
G1 X78.256Y282.987
G1 X78Y283
G1 Y288
G1 X76.5
G1 Y287
G1 X75
G1 Y291
G1 X66.252
G1 X57.504
G1 X48.757
G1 X40.009
G0 X39.509
G1 X30.382
G1 X21.254
G1 X12.127
G1 X3
G1 Y281.278
G1 Y271.556
G1 Y261.833
G1 Y252.111
G1 Y242.389
G1 Y232.667
G1 Y222.944
G1 Y213.222
G1 Y203.5
G1 X8
G1 Y202
G1 X3
G1 Y192.591
G1 Y183.182
G1 Y173.773
G1 Y164.364
G1 Y154.955
G1 Y145.545
G1 Y136.136
G1 Y126.727
G1 Y117.318
G1 Y107.909
G1 Y98.5
G1 X8
G1 Y97
G1 X3
G1 Y93
G1 X12.127
G1 X21.254
G1 X30.382
G1 X39.509
G0 X40.009
G1 X48.757
G1 X57.504
G1 X66.252
G1 X75
M09
G1 S0
M5
M2
G21
G0 Z50
; return to user-defined finish pos
G0 X0 Y300
; beeeep-beep-beep
M911 G4P0.5
M912 G4P0.1
M911 G4P0.1
M912 G4P0.05
M911 G4P0.1
M912
M2
